X:63
T:Bezeichnung standardisiert: 7. Tanz in D - nach Drey\sser 1720;
T:7. [Dantz in D nach Johann Friedrich Drey\sser, 1720]
C:Urheber unbekannt, 1720 belegt
S:Handschrift "Dantz B\"uchlein", geschrieben von "Johann Friedrich Drey\sser" "1720", Bayerische Staatsbibliothek Mus.ms. 1578.
S:Scan online: http://daten.digitale-sammlungen.de/bsb00108196/image_86
F:http://simonwascher.info/TradArchiv/Drey\sser_1720  file-version 2017-11-25
Z:abc-Text erstellt von Simon Wascher am 28.10.2016 unter Verwendung der Umwandlung der RISM Incipits und in Kenntniss der Abschrift von Emil Karl BL\"umml im \"Osterreichischen Volksliedarchiv, E-53.
N:+; Punktierung in Takt 4 fehlt.
M:C|
L:1/8
K:D dorisch treble
A2 |\
d2e2f2e2 | d4^c4 | \
d2e2f2e2 | d4x2 ::\
A2 |\
d2e2f2ef | g4a4 | g2a2bagf | e4A4 |\
d2e2f2e2 | d4^c4 | \
d2e2f2e2 | d6 H:|

